modules/micon/icons/gratipay.svg

<svg width="1792" height="1792" viewBox="0 0 1792 1792" xmlns="http://www.w3.org/2000/svg"><path d="M901 1302l350-473q16-22 24.5-59t-6-85-61.5-79q-40-26-83-25.5t-73.5 17.5-54.5 45q-36 40-96 40-59 0-95-40-24-28-54.5-45t-73.5-17.5-84 25.5q-46 31-60.5 79t-6 85 24.5 59zm763-406q0 209-103 385.5t-279.5 279.5-385.5 103-385.5-103-279.5-279.5-103-385.5 103-385.5 279.5-279.5 385.5-103 385.5 103 279.5 279.5 103 385.5z"/></svg>

<svg width="1792" height="1792" viewBox="0 0 1792 1792" xmlns="http://www.w3.org/2000/svg"><path d="M901 1302l350-473q16-22 24.5-59t-6-85-61.5-79q-40-26-83-25.5t-73.5 17.5-54.5 45q-36 40-96 40-59 0-95-40-24-28-54.5-45T678 580.5 594 606q-46 31-60.5 79t-6 85 24.5 59zm763-406q0 209-103 385.5T1281.5 1561 896 1664t-385.5-103T231 1281.5 128 896t103-385.5T510.5 231 896 128t385.5 103T1561 510.5 1664 896z"/></svg>
